!!!COM: Palestrina, Giovanni Perluigi da
!!!OPR: Quam pulchra es
!!!OTL: Benedictus
**kern	**kern	**kern	**kern
*Itenor	*Icalto	*Icalto	*Icant
!Tenor	!Altus 2	!Altus 1	!Cantus
*clefGv2	*clefG2	*clefG2	*clefG2
*k[]	*k[]	*k[]	*k[]
*C:ion	*C:ion	*C:ion	*C:ion
*M4/2	*M4/2	*M4/2	*M4/2
=1	=1	=1	=1
1e	0r	0r	0r
2e	.	.	.
2c	.	.	.
=2	=2	=2	=2
2d	0r	1r	0r
2e	.	.	.
4f	.	1a	.
4e	.	.	.
4d	.	.	.
4c	.	.	.
=3	=3	=3	=3
1d	0r	2a	0r
.	.	2f	.
2e	.	2g	.
2c	.	2a	.
=4	=4	=4	=4
2d	0r	4b-	1r
.	.	4a	.
2.e	.	4g	.
.	.	4f	.
.	.	1g	1ee
4d	.	.	.
4c	.	.	.
4B	.	.	.
=5	=5	=5	=5
2A	0r	1.a	2ee
1f	.	.	2cc
.	.	.	2dd
2e	.	2g	2ee
=6	=6	=6	=6
0d	1a	2.f	4ff
.	.	.	4ee
.	.	.	4dd
.	.	4e	4cc
.	2a	4f	1dd
.	.	4g	.
.	2f	4a	.
.	.	4b	.
=7	=7	=7	=7
1c	2g	2cc	2.ee
.	2a	2c	.
.	.	.	4cc
1r	4b-	4g	2dd
.	4a	4f	.
.	4g	4e	[2ee
.	4f	4d	.
=8	=8	=8	=8
1r	2g	4c	4ee]
.	.	4B	4dd
.	1a	2A	2cc
2r	.	1e	2.b
2e	4g	.	.
.	4f#	.	4a
=9	=9	=9	=9
2e	2g	0r	2b
2c	2e	.	2cc
2d	2f	.	[1a
2e	2c	.	.
=10	=10	=10	=10
4f	2.d	1r	0a]
4e	.	.	.
4d	.	.	.
4c	4e	.	.
1d	4f	2r	.
.	4g	.	.
.	4a	2a	.
.	4b	.	.
=11	=11	=11	=11
2.e	2cc	2a	0r
.	2b	2g	.
4d	.	.	.
2c	2a	2a	.
2B	2g	2b	.
=12	=12	=12	=12
0A	1a	4cc	2r
.	.	4b	.
.	.	4a	2ee
.	.	4g	.
.	1cc	1a	2ee
.	.	.	2cc
=13	=13	=13	=13
0r	2b	2.g	2dd
.	2g	.	2ee
.	.	8f	.
.	.	8e	.
.	2a	2d	4ff
.	.	.	4ee
.	4b	4g	4dd
.	4a	4a	4cc
=14	=14	=14	=14
0r	4g	4b	2dd
.	4f	4a	.
.	4e	1cc	1ee
.	4d	.	.
.	2c	.	.
.	2d	4b	4dd
.	.	4a	4cc
=15	=15	=15	=15
2r	1e	2g#	2b
2c	.	1a	2a
2d	1r	.	1b
2e	.	2g#	.
=16	=16	=16	=16
2.f	2r	1a	2.a
.	2f	.	.
8e	.	.	4b
8d	.	.	.
2e	2g	1r	1cc
2f	2a	.	.
=17	=17	=17	=17
2.d	2b-	0r	1r
.	4a	.	.
4e	4g	.	.
[1f	2a	.	1cc
.	4f	.	.
.	4g	.	.
=18	=18	=18	=18
2f]	4a	0r	2dd
.	4b	.	.
2e	1cc	.	2ee
1d	.	.	2.ff
.	2b	.	.
.	.	.	8ee
.	.	.	8dd
=19	=19	=19	=19
1c	1cc	2r	4ee
.	.	.	4ff
.	.	2g	4gg
.	.	.	4ee
2r	1r	2a	1ff
2d	.	2b	.
=20	=20	=20	=20
2.e	0r	2cc	2ee
.	.	4b	2ee
4f	.	4a	.
[1g	.	1b	2dd
.	.	.	2g
=21	=21	=21	=21
2g]	0r	1g	2b
2e	.	.	2cc
2f	.	2a	1dd
2g	.	2b	.
=22	=22	=22	=22
1c	2r	2.cc	1.ee
.	2c	.	.
.	.	8b	.
.	.	8a	.
1r	2e	2g	.
.	2f	[2cc	4dd
.	.	.	4cc
=23	=23	=23	=23
0r	1g	2cc]	2ee
.	.	2b	2.dd
.	2e	2g	.
.	.	.	4cc
.	2f	[2a	[2cc
=24	=24	=24	=24
2r	1d	2a]	2cc]
2G	.	4g	2b
.	.	4f	.
2.A	1c	2e	[1cc
.	.	2c	.
4B	.	.	.
=25	=25	=25	=25
2c	2r	2e	1cc]
2A	2c	2f#	.
2B	2d	1g	2r
2c	2e	.	2g
=26	=26	=26	=26
1F	1.f	1r	2.a
.	.	.	4b
1r	.	2r	1cc
.	2e	2g	.
=27	=27	=27	=27
0r	2f	2a	1dd
.	2g	2b	.
.	4c	2cc	[1ee
.	4d	.	.
.	4e	4c	.
.	4f	4d	.
=28	=28	=28	=28
0r	2.g	4e	2ee]
.	.	4f	.
.	.	1g	4dd
.	4a	.	4cc
.	2b	.	2dd
.	[2cc	2e	2ee
=29	=29	=29	=29
2r	2cc]	2f	2dd
2G	2b	2g	2dd
2.A	2cc	1e	[1cc
.	2c	.	.
4B	.	.	.
=30	=30	=30	=30
2c	2e	2r	1cc]
2A	2f#	2c	.
2B	1g	2d	2r
2c	.	2e	2g
=31	=31	=31	=31
2F	1r	2f	2a
2G	.	4e	2b
.	.	4d	.
[1A	2r	1c	2cc
.	2c	.	[2ee
=32	=32	=32	=32
2A]	2e	2r	4ee]
.	.	.	4dd
2A	2f#	2c	1cc
1G	1g	2d	.
.	.	2e	2b
=33	=33	=33	=33
2.F	2.cc	2f	2.a
.	.	2.cc	.
4G	4b	.	4b
2.A	4a	.	[1cc
.	4g	4b	.
.	[2f	[2a	.
4B	.	.	.
=34	=34	=34	=34
1c	4f]	2a]	1cc]
.	8e	.	.
.	8d	.	.
.	2e	2g	.
1F	2a	1f	1cc
.	2a	.	.
=35	=35	=35	=35
0c	0g	0e	0cc
!! Hosanna
*Ibass	*Itenor	*Icalto	*Icant
!Bassus	!Tenor	!Altus	!Cantus
*clefF4	*clefGv2	*clefG2	*clefG2
*k[]	*k[]	*k[]	*k[]
*C:ion	*C:ion	*C:ion	*C:ion
*M4/2	*M4/2	*M4/2	*M4/2
=36	=36	=36	=36
0r	0r	1e	0r
.	.	1g	.
=37	=37	=37	=37
1A	0r	1a	0r
1c	.	2g	.
.	.	2e	.
=38	=38	=38	=38
1d	1r	1f	1a
2c	1e	2e	1cc
2A	.	2a	.
=39	=39	=39	=39
1B-	1g	1d	1dd
1A	1a	2e	2cc
.	.	2f	2a
=40	=40	=40	=40
0r	2g	1g	1b-
.	2e	.	.
.	1f	1d	2a
.	.	.	[2dd
=41	=41	=41	=41
2r	1e	2g	2dd]
2E	.	2g	1cc
1G	1d	2.g	.
.	.	.	2b
.	.	4f	.
=42	=42	=42	=42
1A	2c	4e	2cc
.	.	4d	.
.	2A	2c	2e
2G	1B	2d	1g
2E	.	2e	.
=43	=43	=43	=43
1F	2r	4A	1a
.	.	4B	.
.	2A	4c	.
.	.	4d	.
2E	1c	1e	2g
2A	.	.	2e
=44	=44	=44	=44
4D	1d	1a	1f
4E	.	.	.
4F	.	.	.
4G	.	.	.
2A	2c	1a	2e
2F	2A	.	2a
=45	=45	=45	=45
2G	1B-	0r	4d
.	.	.	4e
4D	.	.	4f
4E	.	.	4g
4F	[1A	.	4a
4G	.	.	4b
4A	.	.	[2cc
4B	.	.	.
=46	=46	=46	=46
2.c	1A]	1e	4cc]
.	.	.	4dd
.	.	.	2ee
4A	.	.	.
2B	1r	1g	2dd
2c	.	.	2ee
=47	=47	=47	=47
1F	2r	1a	2cc
.	2A	.	1ff
1C	1c	2g	.
.	.	2e	[2ee
=48	=48	=48	=48
0r	1d	1f	2ee]
.	.	.	2dd
.	2c	2e	2ee
.	2A	2a	2cc
=49	=49	=49	=49
1r	1B-	4d	1dd
.	.	4e	.
.	.	4f	.
.	.	4g	.
1A	2A	2a	[1cc
.	2a	2f	.
=50	=50	=50	=50
1c	2g	2e	1cc]
.	2e	1a	.
1d	1f	.	2r
.	.	2f	2a
=51	=51	=51	=51
2c	2e	2g	1cc
2A	2a	1f	.
1B-	4d	.	1dd
.	4e	.	.
.	4f	2d	.
.	4g	.	.
=52	=52	=52	=52
2A	2.a	1e	2cc
2A	.	.	2ee
.	4g	.	.
4D	4f	1a	1ff
4E	4e	.	.
4F	2d	.	.
4G	.	.	.
=53	=53	=53	=53
4A	1c	2a	2ee
4B	.	.	.
2c	.	2g	2ee
4F	2r	1cc	4a
4G	.	.	4b
4A	2e	.	4cc
4B	.	.	4dd
=54	=54	=54	=54
2c	4A	1.cc	2ee
.	4B	.	.
2F	4c	.	2ff
.	4d	.	.
2C	2e	.	2ee
2D	[2f	[2a	[2dd
=55	=55	=55	=55
1A	4f]	2a]	2dd]
.	4e	.	.
.	2c	2f	1cc
1G	1d	1g	.
.	.	.	2b
=56	=56	=56	=56
0C	0c	0e	0cc
==	==	==	==
*-	*-	*-	*-
!!!CDT: 1525/^1526/-1594/2/2
!!!OCY: Italia
!!!AGN: Mass (Parody)
!!!AST: renaissance, vocal
!!!ASW: Motet 1532 (Johannes Lupi)
!!!PWK: Masses, Book 6
!!!RNB: Cadence finals: G
!!!YOR: Le Opere Complete, v. 21, p. 73
!!!YOO: Rome, Italy: Fratelli Scalera
!!!END: 1992//
!!!EED: John Miller
!!!YEC: Copyright 2000, John Miller
!!!YEN: United States of America
!!!YEM: Rights to all derivative electronic formats reserved.
!!!YEM: Refer to licensing agreement for further details.
!!!YEM: This file must be accompanied by the licensing agreement.
!!!YEM: A copy of the licensing agreement may be found at http://www.music-cog.ohio-state.edu/HumdrumDatabases/Palestrina/license.txt
!!!EMD: converted to Humdrum by Bret Aarden
